svg/regular/bx-dots-vertical.svg

<svg xmlns="http://www.w3.org/2000/svg" width="24" height="24"><path d="M10 10h4v4h-4zm0-6h4v4h-4zm0 12h4v4h-4z"/></svg>

<svg xmlns="http://www.w3.org/2000/svg" width="24" height="24" viewBox="0 0 24 24"><path d="M10 10H14V14H10zM10 4H14V8H10zM10 16H14V20H10z"/></svg>
